packages/social-trader/src/routes/ssr/landing-page/images/download/facet.svg

<svg width="240" height="200" viewBox="0 0 240 200" fill="none" xmlns="http://www.w3.org/2000/svg">
<g filter="url(#filter0_d)">
<path d="M20 40C20 28.9543 28.9543 20 40 20H200C211.046 20 220 28.9543 220 40V160C220 171.046 211.046 180 200 180H40C28.9543 180 20 171.046 20 160V40Z" fill="#00BDAE"/>
</g>
<mask id="mask0" mask-type="alpha" maskUnits="userSpaceOnUse" x="20" y="20" width="200" height="160">
<path d="M20 40C20 28.9543 28.9543 20 40 20H200C211.046 20 220 28.9543 220 40V160C220 171.046 211.046 180 200 180H40C28.9543 180 20 171.046 20 160V40Z" fill="#50B0A6"/>
</mask>
<g mask="url(#mask0)">
<path opacity="0.2" d="M34.5 83.3208C13.3 60.921 -3.33333 64.9875 -9 69.8208V198.32H226.5V64.3207C220.833 56.154 209.5 37.3203 187.5 40.3207C165.696 43.2943 150.5 60.3207 136 61.8207C121.5 63.3207 114.5 62.8207 99 77.3207C83.5 91.8207 61 111.321 34.5 83.3208Z" fill="url(#paint0_linear)"/>
<path opacity="0.2" d="M-9 70.0005C-3.33333 65.1672 13.3 61.1006 34.5 83.5005C61 111.5 83.5 92.0004 99 77.5004C114.5 63.0004 121.5 63.5004 136 62.0004C150.5 60.5004 165.696 43.474 187.5 40.5004C209.5 37.5 220.833 56.3337 226.5 64.5004" stroke="white" stroke-width="2" stroke-linecap="round" stroke-linejoin="round"/>
<path opacity="0.2" d="M1 85.0002C5.33333 85.6668 19.398 85.5729 38 74.5002C59 62 84.8199 54.0001 114.5 82.0002C141 107 171.031 91.6082 186 78.0001C208 58 221.833 65.0001 232 65.0001" stroke="white" stroke-width="2" stroke-linecap="round" stroke-linejoin="round"/>
<path opacity="0.2" d="M17.5 25.4999C22 25.4999 62.8262 5.00031 94.5 36C118 58.9999 128 72.4998 149 77.4998C170 82.4998 208 79.9998 235.5 69.9998" stroke="white" stroke-width="2" stroke-linecap="round" stroke-linejoin="round"/>
</g>
<path d="M55.434 129.13C54.5153 129.13 53.6833 128.931 52.938 128.532C52.2013 128.125 51.6207 127.566 51.196 126.855C50.78 126.144 50.572 125.343 50.572 124.45C50.572 123.557 50.7843 122.756 51.209 122.045C51.6337 121.334 52.2143 120.78 52.951 120.381C53.6963 119.974 54.5283 119.77 55.447 119.77C56.1923 119.77 56.8727 119.9 57.488 120.16C58.1033 120.42 58.6233 120.797 59.048 121.291L57.956 122.318C57.2973 121.607 56.487 121.252 55.525 121.252C54.901 121.252 54.342 121.391 53.848 121.668C53.354 121.937 52.9683 122.314 52.691 122.799C52.4137 123.284 52.275 123.835 52.275 124.45C52.275 125.065 52.4137 125.616 52.691 126.101C52.9683 126.586 53.354 126.968 53.848 127.245C54.342 127.514 54.901 127.648 55.525 127.648C56.487 127.648 57.2973 127.288 57.956 126.569L59.048 127.609C58.6233 128.103 58.099 128.48 57.475 128.74C56.8597 129 56.1793 129.13 55.434 129.13ZM62.0583 123.072C62.5263 122.344 63.3496 121.98 64.5283 121.98V123.527C64.3896 123.501 64.264 123.488 64.1513 123.488C63.5186 123.488 63.0246 123.674 62.6693 124.047C62.314 124.411 62.1363 124.94 62.1363 125.633V129H60.5113V122.058H62.0583V123.072ZM72.3693 125.568C72.3693 125.681 72.3607 125.841 72.3433 126.049H66.8963C66.9917 126.56 67.2387 126.968 67.6373 127.271C68.0447 127.566 68.5473 127.713 69.1453 127.713C69.908 127.713 70.5363 127.462 71.0303 126.959L71.9013 127.96C71.5893 128.333 71.195 128.614 70.7183 128.805C70.2417 128.996 69.7043 129.091 69.1063 129.091C68.3437 129.091 67.672 128.939 67.0913 128.636C66.5107 128.333 66.06 127.912 65.7393 127.375C65.4273 126.829 65.2713 126.214 65.2713 125.529C65.2713 124.853 65.423 124.246 65.7263 123.709C66.0383 123.163 66.4673 122.738 67.0133 122.435C67.5593 122.132 68.1747 121.98 68.8593 121.98C69.5353 121.98 70.1377 122.132 70.6663 122.435C71.2037 122.73 71.6197 123.15 71.9143 123.696C72.2177 124.233 72.3693 124.857 72.3693 125.568ZM68.8593 123.28C68.3393 123.28 67.8973 123.436 67.5333 123.748C67.178 124.051 66.9613 124.459 66.8833 124.97H70.8223C70.753 124.467 70.5407 124.06 70.1853 123.748C69.83 123.436 69.388 123.28 68.8593 123.28ZM76.3918 121.98C77.4145 121.98 78.1945 122.227 78.7318 122.721C79.2778 123.206 79.5508 123.943 79.5508 124.931V129H78.0168V128.155C77.8175 128.458 77.5315 128.692 77.1588 128.857C76.7948 129.013 76.3528 129.091 75.8328 129.091C75.3128 129.091 74.8578 129.004 74.4678 128.831C74.0778 128.649 73.7745 128.402 73.5578 128.09C73.3498 127.769 73.2458 127.41 73.2458 127.011C73.2458 126.387 73.4755 125.889 73.9348 125.516C74.4028 125.135 75.1352 124.944 76.1318 124.944H77.9258V124.84C77.9258 124.355 77.7785 123.982 77.4838 123.722C77.1978 123.462 76.7688 123.332 76.1968 123.332C75.8068 123.332 75.4212 123.393 75.0398 123.514C74.6672 123.635 74.3508 123.804 74.0908 124.021L73.4538 122.838C73.8178 122.561 74.2555 122.348 74.7668 122.201C75.2782 122.054 75.8198 121.98 76.3918 121.98ZM76.1708 127.908C76.5782 127.908 76.9378 127.817 77.2498 127.635C77.5705 127.444 77.7958 127.176 77.9258 126.829V126.023H76.2488C75.3128 126.023 74.8448 126.331 74.8448 126.946C74.8448 127.241 74.9618 127.475 75.1958 127.648C75.4298 127.821 75.7548 127.908 76.1708 127.908ZM85.8093 128.623C85.6186 128.779 85.3846 128.896 85.1073 128.974C84.8386 129.052 84.5526 129.091 84.2493 129.091C83.4866 129.091 82.8973 128.892 82.4813 128.493C82.0653 128.094 81.8573 127.514 81.8573 126.751V123.41H80.7133V122.11H81.8573V120.524H83.4823V122.11H85.3413V123.41H83.4823V126.712C83.4823 127.05 83.5646 127.31 83.7293 127.492C83.894 127.665 84.1323 127.752 84.4443 127.752C84.8083 127.752 85.1116 127.657 85.3543 127.466L85.8093 128.623ZM93.4436 125.568C93.4436 125.681 93.4349 125.841 93.4176 126.049H87.9706C88.0659 126.56 88.3129 126.968 88.7116 127.271C89.1189 127.566 89.6216 127.713 90.2196 127.713C90.9822 127.713 91.6106 127.462 92.1046 126.959L92.9756 127.96C92.6636 128.333 92.2692 128.614 91.7926 128.805C91.3159 128.996 90.7786 129.091 90.1806 129.091C89.4179 129.091 88.7462 128.939 88.1656 128.636C87.5849 128.333 87.1342 127.912 86.8136 127.375C86.5016 126.829 86.3456 126.214 86.3456 125.529C86.3456 124.853 86.4972 124.246 86.8006 123.709C87.1126 123.163 87.5416 122.738 88.0876 122.435C88.6336 122.132 89.2489 121.98 89.9336 121.98C90.6096 121.98 91.2119 122.132 91.7406 122.435C92.2779 122.73 92.6939 123.15 92.9886 123.696C93.2919 124.233 93.4436 124.857 93.4436 125.568ZM89.9336 123.28C89.4136 123.28 88.9716 123.436 88.6076 123.748C88.2522 124.051 88.0356 124.459 87.9576 124.97H91.8966C91.8272 124.467 91.6149 124.06 91.2596 123.748C90.9042 123.436 90.4622 123.28 89.9336 123.28ZM101.418 120.576C100.734 120.576 100.391 120.949 100.391 121.694V122.11H102.302V123.41H100.443V129H98.8183V123.41H97.6743V122.11H98.8183V121.668C98.8183 120.923 99.0349 120.338 99.4683 119.913C99.9016 119.48 100.513 119.263 101.301 119.263C101.925 119.263 102.415 119.389 102.77 119.64L102.315 120.862C102.038 120.671 101.739 120.576 101.418 120.576ZM110.117 122.058V129H108.57V128.116C108.31 128.428 107.985 128.671 107.595 128.844C107.205 129.009 106.785 129.091 106.334 129.091C105.407 129.091 104.674 128.835 104.137 128.324C103.608 127.804 103.344 127.037 103.344 126.023V122.058H104.969V125.802C104.969 126.426 105.108 126.894 105.385 127.206C105.671 127.509 106.074 127.661 106.594 127.661C107.175 127.661 107.634 127.483 107.972 127.128C108.319 126.764 108.492 126.244 108.492 125.568V122.058H110.117ZM116.184 121.98C117.059 121.98 117.761 122.236 118.29 122.747C118.818 123.258 119.083 124.017 119.083 125.022V129H117.458V125.23C117.458 124.623 117.315 124.168 117.029 123.865C116.743 123.553 116.335 123.397 115.807 123.397C115.209 123.397 114.736 123.579 114.39 123.943C114.043 124.298 113.87 124.814 113.87 125.49V129H112.245V122.058H113.792V122.955C114.06 122.634 114.398 122.392 114.806 122.227C115.213 122.062 115.672 121.98 116.184 121.98ZM128.007 119.354V129H126.447V128.103C126.178 128.432 125.844 128.679 125.446 128.844C125.056 129.009 124.622 129.091 124.146 129.091C123.478 129.091 122.876 128.944 122.339 128.649C121.81 128.354 121.394 127.938 121.091 127.401C120.787 126.855 120.636 126.231 120.636 125.529C120.636 124.827 120.787 124.207 121.091 123.67C121.394 123.133 121.81 122.717 122.339 122.422C122.876 122.127 123.478 121.98 124.146 121.98C124.605 121.98 125.025 122.058 125.407 122.214C125.788 122.37 126.113 122.604 126.382 122.916V119.354H128.007ZM124.341 127.7C124.731 127.7 125.082 127.613 125.394 127.44C125.706 127.258 125.953 127.002 126.135 126.673C126.317 126.344 126.408 125.962 126.408 125.529C126.408 125.096 126.317 124.714 126.135 124.385C125.953 124.056 125.706 123.804 125.394 123.631C125.082 123.449 124.731 123.358 124.341 123.358C123.951 123.358 123.6 123.449 123.288 123.631C122.976 123.804 122.729 124.056 122.547 124.385C122.365 124.714 122.274 125.096 122.274 125.529C122.274 125.962 122.365 126.344 122.547 126.673C122.729 127.002 122.976 127.258 123.288 127.44C123.6 127.613 123.951 127.7 124.341 127.7Z" fill="white"/>
<path opacity="0.5" d="M58.411 145.608H56.591V148H55.655V145.608H50.52V144.932L55.343 138.9H56.383L51.729 144.776H55.681V142.67H56.591V144.776H58.411V145.608ZM65.9881 148.078C65.3121 148.078 64.6621 147.97 64.0381 147.753C63.4227 147.536 62.9461 147.25 62.6081 146.895L62.9851 146.154C63.3144 146.483 63.7521 146.752 64.2981 146.96C64.8441 147.159 65.4074 147.259 65.9881 147.259C66.8027 147.259 67.4137 147.112 67.8211 146.817C68.2284 146.514 68.4321 146.124 68.4321 145.647C68.4321 145.283 68.3194 144.993 68.0941 144.776C67.8774 144.559 67.6087 144.395 67.2881 144.282C66.9674 144.161 66.5211 144.031 65.9491 143.892C65.2644 143.719 64.7184 143.554 64.3111 143.398C63.9037 143.233 63.5527 142.986 63.2581 142.657C62.9721 142.328 62.8291 141.881 62.8291 141.318C62.8291 140.859 62.9504 140.443 63.1931 140.07C63.4357 139.689 63.8084 139.385 64.3111 139.16C64.8137 138.935 65.4377 138.822 66.1831 138.822C66.7031 138.822 67.2101 138.896 67.7041 139.043C68.2067 139.182 68.6401 139.377 69.0041 139.628L68.6791 140.395C68.2977 140.144 67.8904 139.957 67.4571 139.836C67.0237 139.706 66.5991 139.641 66.1831 139.641C65.3857 139.641 64.7834 139.797 64.3761 140.109C63.9774 140.412 63.7781 140.807 63.7781 141.292C63.7781 141.656 63.8864 141.951 64.1031 142.176C64.3284 142.393 64.6057 142.562 64.9351 142.683C65.2731 142.796 65.7237 142.921 66.2871 143.06C66.9544 143.225 67.4917 143.389 67.8991 143.554C68.3151 143.71 68.6661 143.953 68.9521 144.282C69.2381 144.603 69.3811 145.04 69.3811 145.595C69.3811 146.054 69.2554 146.475 69.0041 146.856C68.7614 147.229 68.3844 147.528 67.8731 147.753C67.3617 147.97 66.7334 148.078 65.9881 148.078ZM74.8831 147.584C74.7098 147.74 74.4931 147.861 74.2331 147.948C73.9818 148.026 73.7175 148.065 73.4401 148.065C72.7988 148.065 72.3048 147.892 71.9581 147.545C71.6115 147.198 71.4381 146.709 71.4381 146.076V141.942H70.2161V141.162H71.4381V139.667H72.3611V141.162H74.4411V141.942H72.3611V146.024C72.3611 146.431 72.4608 146.743 72.6601 146.96C72.8681 147.168 73.1628 147.272 73.5441 147.272C73.7348 147.272 73.9168 147.242 74.0901 147.181C74.2721 147.12 74.4281 147.034 74.5581 146.921L74.8831 147.584ZM82.2762 144.867H76.5562C76.6082 145.578 76.8812 146.154 77.3752 146.596C77.8692 147.029 78.4932 147.246 79.2472 147.246C79.6718 147.246 80.0618 147.172 80.4172 147.025C80.7725 146.869 81.0802 146.644 81.3402 146.349L81.8602 146.947C81.5568 147.311 81.1755 147.588 80.7162 147.779C80.2655 147.97 79.7672 148.065 79.2212 148.065C78.5192 148.065 77.8952 147.918 77.3492 147.623C76.8118 147.32 76.3915 146.904 76.0882 146.375C75.7848 145.846 75.6332 145.248 75.6332 144.581C75.6332 143.914 75.7762 143.316 76.0622 142.787C76.3568 142.258 76.7555 141.847 77.2582 141.552C77.7695 141.257 78.3415 141.11 78.9742 141.11C79.6068 141.11 80.1745 141.257 80.6772 141.552C81.1798 141.847 81.5742 142.258 81.8602 142.787C82.1462 143.307 82.2892 143.905 82.2892 144.581L82.2762 144.867ZM78.9742 141.903C78.3155 141.903 77.7608 142.115 77.3102 142.54C76.8682 142.956 76.6168 143.502 76.5562 144.178H81.4052C81.3445 143.502 81.0888 142.956 80.6382 142.54C80.1962 142.115 79.6415 141.903 78.9742 141.903ZM87.6909 141.11C88.3322 141.11 88.9129 141.257 89.4329 141.552C89.9529 141.838 90.3602 142.245 90.6549 142.774C90.9495 143.303 91.0969 143.905 91.0969 144.581C91.0969 145.266 90.9495 145.872 90.6549 146.401C90.3602 146.93 89.9529 147.341 89.4329 147.636C88.9215 147.922 88.3409 148.065 87.6909 148.065C87.1362 148.065 86.6335 147.952 86.1829 147.727C85.7409 147.493 85.3769 147.155 85.0909 146.713V150.522H84.1679V141.162H85.0519V142.514C85.3292 142.063 85.6932 141.717 86.1439 141.474C86.6032 141.231 87.1189 141.11 87.6909 141.11ZM87.6259 147.246C88.1025 147.246 88.5359 147.138 88.9259 146.921C89.3159 146.696 89.6192 146.379 89.8359 145.972C90.0612 145.565 90.1739 145.101 90.1739 144.581C90.1739 144.061 90.0612 143.602 89.8359 143.203C89.6192 142.796 89.3159 142.479 88.9259 142.254C88.5359 142.029 88.1025 141.916 87.6259 141.916C87.1405 141.916 86.7029 142.029 86.3129 142.254C85.9315 142.479 85.6282 142.796 85.4029 143.203C85.1862 143.602 85.0779 144.061 85.0779 144.581C85.0779 145.101 85.1862 145.565 85.4029 145.972C85.6282 146.379 85.9315 146.696 86.3129 146.921C86.7029 147.138 87.1405 147.246 87.6259 147.246ZM94.8114 148.065C94.2567 148.065 93.7237 147.987 93.2124 147.831C92.7097 147.666 92.3154 147.463 92.0294 147.22L92.4454 146.492C92.7314 146.717 93.0911 146.904 93.5244 147.051C93.9577 147.19 94.4084 147.259 94.8764 147.259C95.5004 147.259 95.9597 147.164 96.2544 146.973C96.5577 146.774 96.7094 146.496 96.7094 146.141C96.7094 145.89 96.6271 145.695 96.4624 145.556C96.2977 145.409 96.0897 145.3 95.8384 145.231C95.5871 145.153 95.2534 145.079 94.8374 145.01C94.2827 144.906 93.8364 144.802 93.4984 144.698C93.1604 144.585 92.8701 144.399 92.6274 144.139C92.3934 143.879 92.2764 143.519 92.2764 143.06C92.2764 142.488 92.5147 142.02 92.9914 141.656C93.4681 141.292 94.1311 141.11 94.9804 141.11C95.4224 141.11 95.8644 141.171 96.3064 141.292C96.7484 141.405 97.1124 141.556 97.3984 141.747L96.9954 142.488C96.4321 142.098 95.7604 141.903 94.9804 141.903C94.3911 141.903 93.9447 142.007 93.6414 142.215C93.3467 142.423 93.1994 142.696 93.1994 143.034C93.1994 143.294 93.2817 143.502 93.4464 143.658C93.6197 143.814 93.8321 143.931 94.0834 144.009C94.3347 144.078 94.6814 144.152 95.1234 144.23C95.6694 144.334 96.1071 144.438 96.4364 144.542C96.7657 144.646 97.0474 144.824 97.2814 145.075C97.5154 145.326 97.6324 145.673 97.6324 146.115C97.6324 146.713 97.3811 147.19 96.8784 147.545C96.3844 147.892 95.6954 148.065 94.8114 148.065Z" fill="white"/>
<defs>
<filter id="filter0_d" x="0" y="0" width="240" height="200" filterUnits="userSpaceOnUse" color-interpolation-filters="sRGB">
<feFlood flood-opacity="0" result="BackgroundImageFix"/>
<feColorMatrix in="SourceAlpha" type="matrix" values="0 0 0 0 0 0 0 0 0 0 0 0 0 0 0 0 0 0 127 0"/>
<feOffset/>
<feGaussianBlur stdDeviation="10"/>
<feColorMatrix type="matrix" values="0 0 0 0 0.129412 0 0 0 0 0.172549 0 0 0 0 0.203922 0 0 0 0.05 0"/>
<feBlend mode="normal" in2="BackgroundImageFix" result="effect1_dropShadow"/>
<feBlend mode="normal" in="SourceGraphic" in2="effect1_dropShadow" result="shape"/>
</filter>
<linearGradient id="paint0_linear" x1="-46.7077" y1="-11.8292" x2="-46.7077" y2="356.881" gradientUnits="userSpaceOnUse">
<stop stop-color="white"/>
<stop offset="1" stop-color="white" stop-opacity="0.01"/>
</linearGradient>
</defs>
</svg>

<svg width="240" height="200" fill="none" xmlns="http://www.w3.org/2000/svg"><g filter="url(#filter0_d)"><path d="M20 40c0-11.046 8.954-20 20-20h160c11.046 0 20 8.954 20 20v120c0 11.046-8.954 20-20 20H40c-11.046 0-20-8.954-20-20V40z" fill="#00BDAE"/></g><mask id="a" maskUnits="userSpaceOnUse" x="20" y="20" width="200" height="160"><path d="M20 40c0-11.046 8.954-20 20-20h160c11.046 0 20 8.954 20 20v120c0 11.046-8.954 20-20 20H40c-11.046 0-20-8.954-20-20V40z" fill="#50B0A6"/></mask><g mask="url(#a)"><path opacity=".2" d="M34.5 83.32C13.3 60.922-3.333 64.989-9 69.82v128.5h235.5v-134c-5.667-8.166-17-27-39-24-21.804 2.974-37 20-51.5 21.5s-21.5 1-37 15.5-38 34.001-64.5 6z" fill="url(#paint0_linear)"/><path opacity=".2" d="M-9 70c5.667-4.833 22.3-8.9 43.5 13.5 26.5 28 49 8.5 64.5-6s22.5-14 37-15.5 29.696-18.526 51.5-21.5c22-3 33.333 15.834 39 24" stroke="#fff" stroke-width="2" stroke-linecap="round" stroke-linejoin="round"/><path opacity=".2" d="M1 85c4.333.667 18.398.573 37-10.5C59 62 84.82 54 114.5 82c26.5 25 56.531 9.608 71.5-4 22-20 35.833-13 46-13" stroke="#fff" stroke-width="2" stroke-linecap="round" stroke-linejoin="round"/><path opacity=".2" d="M17.5 25.5C22 25.5 62.826 5 94.5 36 118 59 128 72.5 149 77.5s59 2.5 86.5-7.5" stroke="#fff" stroke-width="2" stroke-linecap="round" stroke-linejoin="round"/></g><path d="M55.434 129.13c-.919 0-1.75-.199-2.496-.598a4.558 4.558 0 01-1.742-1.677c-.416-.711-.624-1.512-.624-2.405 0-.893.212-1.694.637-2.405a4.468 4.468 0 011.742-1.664c.745-.407 1.577-.611 2.496-.611.745 0 1.426.13 2.041.39s1.135.637 1.56 1.131l-1.092 1.027c-.659-.711-1.469-1.066-2.431-1.066a3.37 3.37 0 00-1.677.416 2.91 2.91 0 00-1.157 1.131c-.277.485-.416 1.036-.416 1.651s.139 1.166.416 1.651c.277.485.663.867 1.157 1.144.494.269 1.053.403 1.677.403.962 0 1.772-.36 2.431-1.079l1.092 1.04a4.141 4.141 0 01-1.573 1.131c-.615.26-1.296.39-2.041.39zm6.624-6.058c.468-.728 1.292-1.092 2.47-1.092v1.547a2.063 2.063 0 00-.377-.039c-.632 0-1.126.186-1.482.559-.355.364-.533.893-.533 1.586V129h-1.625v-6.942h1.547v1.014zm10.311 2.496c0 .113-.008.273-.026.481h-5.447c.096.511.343.919.741 1.222.408.295.91.442 1.508.442.763 0 1.391-.251 1.885-.754l.871 1.001a2.934 2.934 0 01-1.183.845c-.476.191-1.014.286-1.612.286-.762 0-1.434-.152-2.015-.455a3.335 3.335 0 01-1.352-1.261c-.312-.546-.468-1.161-.468-1.846 0-.676.152-1.283.455-1.82a3.304 3.304 0 011.287-1.274c.546-.303 1.162-.455 1.846-.455.676 0 1.279.152 1.807.455a3.07 3.07 0 011.248 1.261c.304.537.455 1.161.455 1.872zm-3.51-2.288c-.52 0-.962.156-1.326.468-.355.303-.572.711-.65 1.222h3.94c-.07-.503-.282-.91-.638-1.222-.355-.312-.797-.468-1.326-.468zm7.533-1.3c1.023 0 1.803.247 2.34.741.546.485.819 1.222.819 2.21V129h-1.534v-.845a1.93 1.93 0 01-.858.702c-.364.156-.806.234-1.326.234s-.975-.087-1.365-.26a2.22 2.22 0 01-.91-.741 1.94 1.94 0 01-.312-1.079c0-.624.23-1.122.689-1.495.468-.381 1.2-.572 2.197-.572h1.794v-.104c0-.485-.148-.858-.442-1.118-.286-.26-.715-.39-1.287-.39-.39 0-.776.061-1.157.182-.373.121-.69.29-.95.507l-.636-1.183c.364-.277.802-.49 1.313-.637a5.855 5.855 0 011.625-.221zm-.221 5.928c.407 0 .767-.091 1.079-.273.32-.191.546-.459.676-.806v-.806h-1.677c-.936 0-1.404.308-1.404.923 0 .295.117.529.35.702.235.173.56.26.976.26zm9.638.715a1.91 1.91 0 01-.702.351 3.064 3.064 0 01-.858.117c-.762 0-1.352-.199-1.768-.598-.416-.399-.624-.979-.624-1.742v-3.341h-1.144v-1.3h1.144v-1.586h1.625v1.586h1.86v1.3h-1.86v3.302c0 .338.083.598.247.78.165.173.403.26.715.26.364 0 .668-.095.91-.286l.455 1.157zm7.635-3.055c0 .113-.01.273-.026.481H87.97c.095.511.342.919.74 1.222.408.295.91.442 1.509.442.762 0 1.39-.251 1.885-.754l.87 1.001a2.935 2.935 0 01-1.182.845c-.477.191-1.014.286-1.612.286-.763 0-1.435-.152-2.015-.455a3.334 3.334 0 01-1.352-1.261c-.312-.546-.468-1.161-.468-1.846 0-.676.151-1.283.455-1.82a3.304 3.304 0 011.287-1.274c.546-.303 1.16-.455 1.846-.455.676 0 1.278.152 1.807.455.537.295.953.715 1.248 1.261.303.537.455 1.161.455 1.872zm-3.51-2.288c-.52 0-.962.156-1.326.468-.356.303-.572.711-.65 1.222h3.939c-.07-.503-.282-.91-.637-1.222-.356-.312-.798-.468-1.326-.468zm11.484-2.704c-.684 0-1.027.373-1.027 1.118v.416h1.911v1.3h-1.859V129h-1.625v-5.59h-1.144v-1.3h1.144v-.442c0-.745.217-1.33.65-1.755.434-.433 1.045-.65 1.833-.65.624 0 1.114.126 1.469.377l-.455 1.222a1.549 1.549 0 00-.897-.286zm8.699 1.482V129h-1.547v-.884c-.26.312-.585.555-.975.728-.39.165-.81.247-1.261.247-.927 0-1.66-.256-2.197-.767-.529-.52-.793-1.287-.793-2.301v-3.965h1.625v3.744c0 .624.139 1.092.416 1.404.286.303.689.455 1.209.455.581 0 1.04-.178 1.378-.533.347-.364.52-.884.52-1.56v-3.51h1.625zm6.067-.078c.875 0 1.577.256 2.106.767.528.511.793 1.27.793 2.275V129h-1.625v-3.77c0-.607-.143-1.062-.429-1.365-.286-.312-.694-.468-1.222-.468-.598 0-1.071.182-1.417.546-.347.355-.52.871-.52 1.547V129h-1.625v-6.942h1.547v.897a2.531 2.531 0 011.014-.728 3.639 3.639 0 011.378-.247zm11.823-2.626V129h-1.56v-.897a2.518 2.518 0 01-1.001.741c-.39.165-.824.247-1.3.247-.668 0-1.27-.147-1.807-.442a3.2 3.2 0 01-1.248-1.248c-.304-.546-.455-1.17-.455-1.872 0-.702.151-1.322.455-1.859a3.2 3.2 0 011.248-1.248 3.689 3.689 0 011.807-.442c.459 0 .879.078 1.261.234.381.156.706.39.975.702v-3.562h1.625zm-3.666 8.346c.39 0 .741-.087 1.053-.26.312-.182.559-.438.741-.767.182-.329.273-.711.273-1.144 0-.433-.091-.815-.273-1.144a1.881 1.881 0 00-.741-.754 2.05 2.05 0 00-1.053-.273c-.39 0-.741.091-1.053.273a1.881 1.881 0 00-.741.754 2.327 2.327 0 00-.273 1.144c0 .433.091.815.273 1.144.182.329.429.585.741.767.312.173.663.26 1.053.26z" fill="#fff"/><path opacity=".5" d="M58.411 145.608h-1.82V148h-.936v-2.392H50.52v-.676l4.823-6.032h1.04l-4.654 5.876h3.952v-2.106h.91v2.106h1.82v.832zm7.577 2.47a5.894 5.894 0 01-1.95-.325c-.615-.217-1.092-.503-1.43-.858l.377-.741c.33.329.767.598 1.313.806.546.199 1.11.299 1.69.299.815 0 1.426-.147 1.833-.442.407-.303.611-.693.611-1.17 0-.364-.113-.654-.338-.871a2.109 2.109 0 00-.806-.494 12.03 12.03 0 00-1.339-.39 15.085 15.085 0 01-1.638-.494 2.814 2.814 0 01-1.053-.741c-.286-.329-.429-.776-.429-1.339 0-.459.121-.875.364-1.248.243-.381.615-.685 1.118-.91.503-.225 1.127-.338 1.872-.338.52 0 1.027.074 1.521.221.503.139.936.334 1.3.585l-.325.767a4.331 4.331 0 00-1.222-.559 4.42 4.42 0 00-1.274-.195c-.797 0-1.4.156-1.807.468-.399.303-.598.698-.598 1.183 0 .364.108.659.325.884.225.217.503.386.832.507.338.113.789.238 1.352.377.667.165 1.205.329 1.612.494.416.156.767.399 1.053.728.286.321.43.758.43 1.313 0 .459-.127.88-.378 1.261-.243.373-.62.672-1.13.897-.512.217-1.14.325-1.886.325zm8.895-.494a1.82 1.82 0 01-.65.364 2.66 2.66 0 01-.793.117c-.641 0-1.135-.173-1.482-.52-.346-.347-.52-.836-.52-1.469v-4.134h-1.222v-.78h1.222v-1.495h.923v1.495h2.08v.78h-2.08v4.082c0 .407.1.719.3.936.207.208.502.312.883.312.19 0 .373-.03.546-.091.182-.061.338-.147.468-.26l.325.663zm7.393-2.717h-5.72c.052.711.325 1.287.82 1.729.493.433 1.117.65 1.871.65.425 0 .815-.074 1.17-.221.355-.156.663-.381.923-.676l.52.598a2.923 2.923 0 01-1.144.832c-.45.191-.949.286-1.495.286-.702 0-1.326-.147-1.872-.442a3.286 3.286 0 01-1.26-1.248c-.304-.529-.456-1.127-.456-1.794s.143-1.265.43-1.794c.294-.529.692-.94 1.195-1.235a3.37 3.37 0 011.716-.442c.633 0 1.2.147 1.703.442.503.295.897.706 1.183 1.235.286.52.43 1.118.43 1.794l-.014.286zm-3.302-2.964c-.659 0-1.213.212-1.664.637-.442.416-.693.962-.754 1.638h4.85c-.062-.676-.317-1.222-.768-1.638-.442-.425-.997-.637-1.664-.637zm8.717-.793c.641 0 1.222.147 1.742.442.52.286.927.693 1.222 1.222.294.529.442 1.131.442 1.807 0 .685-.147 1.291-.442 1.82a3.16 3.16 0 01-1.222 1.235c-.512.286-1.092.429-1.742.429a3.329 3.329 0 01-1.508-.338 2.91 2.91 0 01-1.092-1.014v3.809h-.923v-9.36h.884v1.352a2.856 2.856 0 011.092-1.04c.46-.243.975-.364 1.547-.364zm-.065 6.136c.477 0 .91-.108 1.3-.325.39-.225.693-.542.91-.949.225-.407.338-.871.338-1.391s-.113-.979-.338-1.378a2.342 2.342 0 00-.91-.949 2.555 2.555 0 00-1.3-.338 2.58 2.58 0 00-1.313.338 2.459 2.459 0 00-.91.949c-.217.399-.325.858-.325 1.378 0 .52.108.984.325 1.391.225.407.528.724.91.949.39.217.828.325 1.313.325zm7.185.819a5.449 5.449 0 01-1.599-.234c-.502-.165-.897-.368-1.183-.611l.416-.728c.286.225.646.412 1.08.559.433.139.883.208 1.351.208.624 0 1.084-.095 1.378-.286a.943.943 0 00.455-.832c0-.251-.082-.446-.247-.585a1.529 1.529 0 00-.624-.325 7.81 7.81 0 00-1-.221 12.653 12.653 0 01-1.34-.312 2.07 2.07 0 01-.87-.559c-.235-.26-.352-.62-.352-1.079 0-.572.239-1.04.715-1.404.477-.364 1.14-.546 1.99-.546.441 0 .883.061 1.325.182.442.113.806.264 1.092.455l-.403.741c-.563-.39-1.235-.585-2.015-.585-.589 0-1.035.104-1.339.312-.294.208-.442.481-.442.819 0 .26.083.468.247.624.174.156.386.273.637.351.252.069.598.143 1.04.221.546.104.984.208 1.313.312.33.104.611.282.845.533.234.251.351.598.351 1.04 0 .598-.25 1.075-.754 1.43-.494.347-1.183.52-2.067.52z" fill="#fff"/><defs><linearGradient id="paint0_linear" x1="-46.708" y1="-11.829" x2="-46.708" y2="356.881" gradientUnits="userSpaceOnUse"><stop stop-color="#fff"/><stop offset="1" stop-color="#fff" stop-opacity=".01"/></linearGradient><filter id="filter0_d" x="0" y="0" width="240" height="200" filterUnits="userSpaceOnUse" color-interpolation-filters="sRGB"><feFlood flood-opacity="0" result="BackgroundImageFix"/><feColorMatrix in="SourceAlpha" values="0 0 0 0 0 0 0 0 0 0 0 0 0 0 0 0 0 0 127 0"/><feOffset/><feGaussianBlur stdDeviation="10"/><feColorMatrix values="0 0 0 0 0.129412 0 0 0 0 0.172549 0 0 0 0 0.203922 0 0 0 0.05 0"/><feBlend in2="BackgroundImageFix" result="effect1_dropShadow"/><feBlend in="SourceGraphic" in2="effect1_dropShadow" result="shape"/></filter></defs></svg>
